X:1
T: Pet's Red Rose
C:Bruce Shawyer
R:Reel
Q:232
K:D
M:4/4
L:1/8
|:A2|"D"dcde dcBA|dcde d4|"Bm"dcde dcBA|"Em"GFED "A7"C4|
"D"dcde dcBA|"Bm"dcde d2d2|"Em"edcB "A7"AGFE|"D"DCDE D2:|
|:fg|"D"agfa "A7"gfeg|"D"fgaf d2ef|"Em"gfef gfef|"A7"gfed c2fg|
"D"agfa "A7"gfeg|"Bm"fgaf d2ef|"Em"gfed "A7"cABc|"D"dcde d2:|
